X:1
T:Morag of Dunvegan
M:6/8
L:1/8
Q:80
C:P.M. J.G. Slattery
S:March Slow
K:HP
|: | {g}c2{d}c{g}c{e}B{G}A | \
{gcd}c2{g}e{A}e3 | \
{ag}a3{g}afa |
{fg}f2{g}e{A}e3 | | \
{g}c2{d}c{g}c{e}B{d}c | \
{gfg}f2{g}e{A}e3 |
{gfg}f2a{fg}fec | \
{gBd}B3{G}A3 :: \
| {ag}a3{g}a2f |
{gef}e2{g}A{GAG}A3 | \
{g}c2{d}c{g}c{e}B{d}c | \
{gfg}f2{g}e{A}e3| |
{ag}a3{g}a2f | \
{gef}e2{g}A{GAG}A3 | \
{g}c2{d}c{gef}e2c |
{gBd}B3{G}A3 :|
